style/elvis/src/icons/svg/src/phone-mobile-pin.svg

<svg width="24" height="25" viewBox="0 0 24 25" fill="none" xmlns="http://www.w3.org/2000/svg">
<path d="M6.483 24.0276C4.563 24.0276 3.001 22.4648 3 20.5436V4.98871C3 3.0655 4.562 1.50171 6.483 1.50171H9C9.414 1.50171 9.75 1.8381 9.75 2.25257C9.75 2.66705 9.414 3.00343 9 3.00343H6.483C5.39 3.00343 4.5 3.89446 4.5 4.98871V18.0207H15V15.7681C15 15.3536 15.336 15.0172 15.75 15.0172C16.164 15.0172 16.5 15.3536 16.5 15.7681V20.5416C16.5 22.4638 14.938 24.0276 13.018 24.0276H6.483ZM4.5 20.5416C4.5 21.6358 5.39 22.5258 6.482 22.5258H13.017C14.11 22.5258 15 21.6358 15 20.5416V19.5224H4.5V20.5416Z" fill="black"/>
<path d="M15.75 6.38405C15.13 6.38405 14.625 5.87847 14.625 5.25776C14.625 4.65907 15.094 4.1665 15.692 4.13547C15.691 4.13547 15.695 4.13547 15.696 4.13547C15.706 4.13447 15.712 4.13347 15.722 4.13246C15.722 4.13246 15.712 4.13246 15.703 4.13347C15.719 4.13146 15.736 4.13046 15.75 4.13046C16.37 4.13046 16.875 4.63604 16.875 5.25676C16.875 5.87747 16.37 6.38405 15.75 6.38405Z" fill="black"/>
<path d="M15.749 13.4431C15.412 13.4431 15.093 13.333 14.827 13.1258C14.73 13.0497 14.642 12.9616 14.567 12.8655C12.712 10.4908 10.5 7.24302 10.5 5.25774C10.5 2.35942 12.855 0.00170898 15.75 0.00170898C18.645 0.00170898 21 2.35942 21 5.25774C21 7.24002 18.788 10.4898 16.932 12.8665C16.646 13.2329 16.215 13.4431 15.749 13.4431ZM15.75 1.50343C13.682 1.50343 12 3.18737 12 5.25774C12 6.42008 13.437 8.98102 15.75 11.9414C18.063 8.97902 19.5 6.41808 19.5 5.25774C19.5 3.18737 17.818 1.50343 15.75 1.50343Z" fill="black"/>
</svg>

<svg width="24" height="25" fill="none" xmlns="http://www.w3.org/2000/svg"><path d="M6.483 24.028A3.488 3.488 0 013 20.544V4.989a3.488 3.488 0 013.483-3.487H9a.75.75 0 010 1.501H6.483A1.987 1.987 0 004.5 4.99v13.03H15v-2.253a.75.75 0 111.5 0v4.774a3.488 3.488 0 01-3.482 3.486H6.483zM4.5 20.542c0 1.094.89 1.984 1.982 1.984h6.535c1.093 0 1.983-.89 1.983-1.984v-1.02H4.5v1.02zM15.75 6.384a1.124 1.124 0 11-.058-2.249h.004c.01 0 .016-.002.026-.003l-.019.001a1.127 1.127 0 01.047 2.25z" fill="#1B314B"/><path d="M15.749 13.443a1.488 1.488 0 01-1.182-.577C12.712 10.49 10.5 7.243 10.5 5.258A5.259 5.259 0 0115.75.002 5.259 5.259 0 0121 5.258c0 1.982-2.212 5.232-4.068 7.609a1.49 1.49 0 01-1.183.576zm.001-11.94A3.756 3.756 0 0012 5.258c0 1.162 1.437 3.723 3.75 6.683 2.313-2.962 3.75-5.523 3.75-6.683a3.756 3.756 0 00-3.75-3.755z" fill="#1B314B"/></svg>
